X: 19614
T: Japanese, The
R: hornpipe
M: 4/4
K: Amajor
c>d|:(3efe ^d>e =d>ec>e|B>cA>B G>AF>G|E>FG>A B>cd>e|f>e^d>f e2 c>=d|
(3efe ^d>e =d>ec>e|B>cA>B G>AF>G|E>FG>A B>cd>e|1 f>ed>B (3Ace a2:|2 f>ed>B (3Ace (3aea||
|:c'2 c'2 c'>ec'>e|b2b2b2 e>e|b2b2 b>eb>e|c'2 a2 a2e>a|
c'2 c'2 c'>ec'>e|b2b2b2 e>f|(3ggg g>e f>ed>B|1 (3ABA G>B A2 e>a:|2 (3ABA G>B A2||

